X:1
T:Far Away
T:Far Away
T:Alonzo Judson Abbey
T:Alonzo Judson Abbey, 1879
T:Public Domain Courtesy of the Cyber Hymnal™
C:Alonzo Judson Abbey
Z:Public Domain
Z:Courtesy of the Cyber Hymnal™
%%score ( 1 2 ) 3
L:1/8
Q:1/4=80
M:2/4
K:F
V:1 treble 
V:2 treble 
V:3 bass 
V:1
 C | [CF][EG] [FA][GB] | [Ac][Ac] ([Bd][Ac]) | [Ac]>[GB] [FA]2 | [FA]>[EG] !fermata!FC | %5
w: 1.~I|oft- en think of|hea- then lands, *|Far a- way,|far a- way, Where|
w: 2.~Oh,|how I pi- ty|child- ren there, *|Far a- way,|far a- way, Al-|
w: 3.~But|I will pray that|God will send, *|Far a- way,|far a- way, Some|
w: 4.~And|when the sil- ver|trump- et swells, *|Far a- way,|far a- way, And|
 [CF][EG] [FA][GB] | [Ac][Ac] ([Bd][Ac]) | [Ac]2 [GB]2 | [FA]3 [Ac] | [Ac][FA] ([FA]/[GB]/)[Ac] | %10
w: many an i- dol|tem- ple stands, *|Far a-|way; And|there each hap- * less|
w: though the clime be|pass- ing fair, *|Far a-|way; I|would not leave * my|
w: tid- ings of my|Sav- ior Friend, *|Far a-|way; And|ev- ery lit- * tle|
w: all the love of|Je- sus tells, *|Far a-|way; The|i- dols shall * like|
 [Ac][GB] [GB][GB] | [GB][EG] ([EG]/[FA]/)[GB] | [GB][FA] [FA]C | [CF][EG] [FA][GB] | %14
w: child is led To|bow to hea- * then|gods the head, While|many a mut- tering|
w: hum- ble home, Midst|fields of rich- * est|flow’rs to roam, If|there no gos- pel|
w: I can spare Shall|go to send * the|Bi- ble there, And|men of God the|
w: Da- gon fall, And|many a child * on|God shall call, And|own their Sav- ior|
 [Ac][Ac] ([Bd][Ac]) | [Ac]>[GB] [FA]2 | [FA]>[EG] F6 |] %17
w: charm is said, *|Far a- way,|far a- way.|
w: sound should come, *|Far a- way,|far a- way.|
w: truth to bear, *|Far a- way,|far a- way.|
w: Lord of all, *|Far a- way,|far a- way.|
V:2
 C | x4 | x4 | x4 | x2 FC | x4 | x4 | x4 | x4 | x4 | x4 | x4 | x3 C | x4 | x4 | x4 | x2 F6 |] %17
V:3
 C, | A,,C, F,F, | F,F, F,2 | [C,C]>[C,C] [F,C]2 | [C,C]>[C,B,] !fermata![F,A,]C, | A,,C, F,F, | %6
 F,F, F,2 | [C,C]2 [C,C]2 | [F,C]3 [F,C] | [F,C][F,C] [F,C][F,C] | [C,C][C,C] [C,C][C,C] | %11
 [C,C][C,C] [C,C][C,C] | [F,C][F,C] [F,C][C,C] | [A,,C][C,C] [F,C][F,C] | [F,C][F,E] [F,E]2 | %15
 [C,C]>[C,C] [F,C]2 | [C,C]>[C,B,] [F,,F,A,]6 |] %17

